packages/kaspersky-hexa-ui-icons/src/iconsSVGs/48/Mail.svg

<svg xmlns="http://www.w3.org/2000/svg" width="48" height="48" fill="none" viewBox="0 0 48 48"><path fill="currentColor" fill-rule="evenodd" d="M0 6v36h48V6zm24 21.62L3.49 8h41zM17.33 24 2 38.66V9.34zm1.44 1.38 5.23 5 5.23-5L44.51 40h-41zM30.67 24 46 9.34v29.32z" clip-rule="evenodd"/></svg>

<svg width="48" height="48" viewBox="0 0 48 48" fill="none" xmlns="http://www.w3.org/2000/svg">
<path fill-rule="evenodd" clip-rule="evenodd" d="M0 6V42H48V6H0ZM24 27.62L3.49 8H44.49L24 27.62ZM17.33 24L2 38.66V9.34L17.33 24ZM18.77 25.38L24 30.38L29.23 25.38L44.51 40H3.51L18.77 25.38ZM30.67 24L46 9.34V38.66L30.67 24Z"  fill="currentColor"/>
</svg>
